X:1
T:Hark! The Voice of Angels Singing
T:Hark! The Voice of Angels Singing
T:Matthew Lindsay McPhail
T:Rose Ball Henninges, 1910
T:Public Domain Courtesy of the Cyber Hymnal™
T:Public Domain Courtesy of the Cyber Hymnal™
C:Matthew Lindsay McPhail
Z:Public Domain
Z:Courtesy of the Cyber Hymnal™
%%score ( 1 2 ) ( 3 4 )
L:1/8
Q:1/4=95
M:3/4
K:C
V:1 treble 
V:2 treble 
V:3 bass 
V:4 bass 
V:1
 [EG]>[EG] | [Ec]3 [EG] [CE]>[DF] | [FA]2 [EG]2 (3([CE][EG])[Ec] | [Ge]4 [Fd]2 | [Ec]4 [CE]>[CE] | %5
w: 1.~Hark! the|voice of an- gels|sing- ing On * the|mid- night|plain, Joy- ful|
w: 2.~See the|guid- ing star as-|cend- ing, Bright- * est|in the|skies, Lead- ing|
w: 3.~Blest the|day when ten- der|Ma- ry Laid * her|in- fant|down, He of|
 [EA]3 [CE] [EA]>[EAc] | [Ae]2 e4 | [^Fd]>[Fe] [Fd]2 [FA]2 | [Fd]4 [FG]>[FG] | %9
w: news the shep- herds|bring- ing,|Peace, good will to|men. Let us|
w: to the ho- ly|man- ger,|Where the Sav- ior|lies. Let us|
w: low- ly birth, yet|no- ble,|Heir of Da- vid’s|crown. Let all|
 [Ec]3 [EG] [CE]>[DF] | [FA]2 [EG]2 (3([CE][EG])[Ec] | [Ge]4 [^Gd]2 | [Ac]4 [^Fc]>[Fc] | %13
w: join the cheer- ful|an- them On * this|na- tal|day— Glo- ry|
w: join the ea- ger|shep- herds And * the|wise men|there, Lay our|
w: peo- ple and all|ag- es Cel- * e-|brate His|birth, Shout, ye|
 [^Fc]3 [Fc] [FB]>[FA] | [Gc]2 [EG]2 G>G | [^FA]4 [=Fd]2 | !fermata![Ec]4 z2 || %17
w: be to God in|Heav- en, Peace on|earth al-|way.|
w: trea- sures at His|foot- stool, Gifts of|praise and|prayer.|
w: rap- tured hosts of|Hea- ven! Wor- ship|Him, O|earth!|
[M:4/4]"^Refrain" [EG]2 [EG]2 [FG]2 [FG]2 | [EG]>[Ec] [Ge]>[Fd] [Ec]2 [EG]2 | %19
w: ||
w: Glo- ry, glo- ry|be to God in Hea- ven!|
w: ||
 [FA]2 [FA]2 [GA]2 [GA]2 | [Ff]>[Ge] [Ad]>[Ac] [GB]2 G2 | [Gc]2 [Ec]2 [Fc]2 [Gc]2 | %22
w: |||
w: Glo- ry, glo- ry|to the Sav- ior giv- en!|Tid- ings gra- cious|
w: |||
 [Ac]>[Ac] [_Ad]>[Ad] [Ge]2 G2 | [^FA]2 [FA]2 [FA]>[Fc] [Fc]>[FA] | [Gc]2 [FB]2 !fermata![Ec]2 |] %25
w: |||
w: to the peo- ple bring; For|Je- sus Christ is born the|Lord and King!|
w: |||
V:2
 x2 | x6 | x6 | x6 | x6 | x6 | x2 (A2 G2) | x6 | x6 | x6 | x6 | x6 | x6 | x6 | x4 G>G | x6 | x6 || %17
[M:4/4] x8 | x8 | x8 | x6 G2 | x8 | x6 G2 | x8 | x6 |] %25
V:3
 [C,C]>[C,C] | [C,G,]3 [C,C] [C,G,]>[C,G,] | [C,C]2 [C,C]2 (3(G,C)[C,G,] | C4 [G,B,]2 | %4
 [C,C]4 [C,G,]>[C,G,] | [A,,C]3 [A,,A,] [A,,C]>[A,,A,] | [C,A,]2 [C,A,]4 | %7
 [D,A,]>[D,A,] [D,A,]2 [D,C]2 | [G,,B,]4 [B,,D]>[B,,D] | [C,C]3 [C,C] [C,G,]>[C,G,] | %10
 [C,C]2 [C,C]2 (3(G,C)[C,G,] | (C2 E2) [B,E]2 | [A,E]4 [D,D]>[D,D] | [D,D]3 [D,D] [D,D]>[D,D] | %14
 [G,E]2 [G,C]2 [E,C]>[E,C] | [D,C]4 [G,,B,]2 | !fermata![C,G,C]4 z2 || %17
[M:4/4] [C,C]2 [C,C]2 [D,B,]2 [D,B,]2 | [C,C]>[C,G,] [C,C]>[C,G,] [C,G,]2 [C,C]2 | %19
 [F,C]2 [F,C]2 [E,^C]2 [E,C]2 | [D,D]>[E,^C] [F,D]>[^F,D] [G,D]2 B,2 | %21
 [E,C]2 [C,G,]2 [D,G,]2 [E,C]2 | [F,C]>[F,C] [F,C]>[F,C] [C,C]2 [E,C]2 | %23
 [D,C]2 [D,D]2 [D,D]>[D,D] [D,D]>[D,D] | [G,E]2 [G,,G,D]2 !fermata![C,C]2 |] %25
V:4
 x2 | x6 | x4 C,2 | (C,2 E,2) x2 | x6 | x6 | x6 | x6 | x6 | x6 | x4 C,2 | C4 x2 | x6 | x6 | x6 | %15
 x6 | x6 ||[M:4/4] x8 | x8 | x8 | x6 (G,=F,) | x8 | x8 | x8 | x6 |] %25

